X: 2
T: Soldiers of France
P: piffero primo a0554
O: Roy Watrous
%R: march, reel
F: http://ancients.sudburymuster.org/mus/med/pdf/musterdjC0.pdf
Z: 2020 John Chambers <jc:trillian.mit.edu>
M: 2/4
L: 1/16
K: A
(e^d |\
e2)A2 c2BA | c2e2 f2ga | e2ag a2f2 | efec B2(e^d |\
e2)A2 c2BA | c2e2 fga2 | e2ag afed | c2A2 A2 :|
|: cB |\
Acec  Acec | Acec f2e2 | Acec Acec | fecA B2cB |\
Acec  Acec | Acec f2e2 | agaf efed | c2A2 A2 :|

% %sep 1 1 200
% %center - - - - - - - - - -
% Whatever we want at the bottom of each set belongs here.
